src/assets/flags/sl.svg

<?xml version="1.0" encoding="UTF-8"?>
<svg xmlns="http://www.w3.org/2000/svg" xmlns:xlink="http://www.w3.org/1999/xlink" width="25px" height="px" viewBox="0 0 25 19" version="1.1">
<g id="surface1">
<path style=" stroke:none;fill-rule:evenodd;fill:rgb(0%,0%,80.392158%);fill-opacity:1;" d="M 0 12.679688 L 25 12.679688 L 25 19 L 0 19 Z M 0 12.679688 "/>
<path style=" stroke:none;fill-rule:evenodd;fill:rgb(100%,100%,100%);fill-opacity:1;" d="M 0 6.359375 L 25 6.359375 L 25 12.679688 L 0 12.679688 Z M 0 6.359375 "/>
<path style=" stroke:none;fill-rule:evenodd;fill:rgb(0%,80.392158%,0%);fill-opacity:1;" d="M 0 0 L 25 0 L 25 6.359375 L 0 6.359375 Z M 0 0 "/>
</g>
</svg>

<svg xmlns="http://www.w3.org/2000/svg" width="25" height="px" viewBox="0 0 25 19"><path d="M0 12.68h25V19H0Zm0 0" style="stroke:none;fill-rule:evenodd;fill:#0000cd;fill-opacity:1"/><path d="M0 6.36h25v6.32H0Zm0 0" style="stroke:none;fill-rule:evenodd;fill:#fff;fill-opacity:1"/><path d="M0 0h25v6.36H0Zm0 0" style="stroke:none;fill-rule:evenodd;fill:#00cd00;fill-opacity:1"/></svg>
